X: 1
T: Lady Ellen
M: 4/4
L: 1/8
R: reel
K: Gmaj
EA AG A2 ed |ed BA G2 ed |G2dG eGdG|edBA GEED|
EAAG A2 ed |ed BA G2 ed |e2 ed g2 ge |edBG A4:|
eaag a2 ed |eaag a2 bc'|bggf g2 bc'| bggf g2 ed| 
eaag a2 ed |eaag a2 bc'|bggf gedB|edBG A4:|
